!!!COM: Music21
!!!OTL: jig_Humours-Of-Strand-Road--The
!!!OMV: jig_Humours-Of-Strand-Road--The
**kern
*clefG2
*k[f#c#]
*D:
*M6/8
=1
8f#L
8d
8f#J
4g
8e
=
8f#L
8d
8f#J
4g
8e
=
8f#L
8d
8f#J
4g
8e
=
8eL
8a
8ddJ
8cc#L
8a
8gJ
=
8f#L
8d
8f#J
4.g
=
8f#L
8d
8f#J
4g
8ee
=
8ff#L
8ee
8ddJ
8cc#L
8a
8gJ
!!linebreak:original
=
8aL
8dd
8cc#J
4.dd
=||
*M6/8
8f#L
8d
8f#J
4g
8e
=
8f#L
8d
8f#J
4g
8e
=
8f#L
8d
8f#J
4g
8e
=
8eL
8a
8ddJ
8cc#L
8a
8gJ
=
8f#L
8d
8f#J
4.g
=
8f#L
8d
8f#J
4g
8ee
!!linebreak:original
=
8ff#L
8ee
8ddJ
8cc#L
8a
8gJ
=
8aL
8dd
8cc#J
4.dd
=||
4.ff#
4gg
8gg
=
8ff#L
8ee
8ddJ
8cc#L
8dd
8eeJ
=
4.ff#
8ggL
8ee
8ggJ
=
8ff#L
8aa
8ff#J
4.aa
=
8ggL
8ff#
8ff#J
4gg
8gg
!!linebreak:original
=
8ff#L
8ee
8ddJ
8cc#L
8dd
8eeJ
=
8ff#L
8ee
8ddJ
8cc#L
8a
8gJ
=
8aL
8dd
8cc#J
4.dd
=||
4.ff#
4gg
8gg
=
8ff#L
8ee
8ddJ
8cc#L
8dd
8eeJ
=
4.ff#
8ggL
8ee
8ggJ
=
8ff#L
8aa
8ff#J
4.aa
!!linebreak:original
=
8ggL
8ff#
8ff#J
4gg
8gg
=
8ff#L
8ee
8ddJ
8cc#L
8dd
8eeJ
=
8ff#L
8ee
8ddJ
8cc#L
8a
8gJ
=
8aL
8dd
8cc#J
4.dd
=||
*-
